assets/logo.svg

<svg height="24" viewBox="0 0 54 24" width="54" xmlns="http://www.w3.org/2000/svg" xmlns:xlink="http://www.w3.org/1999/xlink"><linearGradient id="a" x1="0%" x2="100%" y1="8.210678%" y2="91.789322%"><stop offset="0" stop-color="#f45a5a"/><stop offset="1" stop-color="#e13636"/></linearGradient><path d="m44.2091798 22c-.6164384 0-1.0273973-.0804469-1.4383562-.2011173l.5342466-2.252514c.1849315.0402235.4520548.1206704.6780822.1206704 1.0068493 0 1.5205479-.522905 1.7876712-1.3072626l.1438356-.522905-3.9246575-9.71396647h3.0410959l1.4589041 4.28379887c.2876712.9050279.5342466 1.8502793.8013698 2.8357542h.0821918c.2260274-.9452514.4520548-1.8905028.6986302-2.8357542l1.2328767-4.28379887h2.8972602l-3.5342465 10.07597767c-.9657535 2.5139665-2.0547946 3.8011173-4.4589041 3.8011173zm-4.4352072-3.6603352c-2.0753425 0-2.7739726-1.3273743-2.7739726-3.3385475v-11.0011173h3.0205479v11.1217877c0 .6234637.2876713.824581.5342466.824581.1232877 0 .2054795 0 .369863-.0402234l.369863 2.1921787c-.3287671.1407821-.8424657.2413408-1.5205479.2413408zm-29.93071241.6603352c-1.32445141 0-2.85266458-.5722071-3.87147336-1.4100817l1.34482759-1.880109c.9169279.6948229 1.7523511 1.0626703 2.60815047 1.0626703.89655171 0 1.28369901-.3269755 1.28369901-.8583107 0-.6743869-1.0188087-.9809264-2.05799368-1.3896457-1.22257053-.4700273-2.669279-1.3079019-2.669279-2.9836513 0-1.88010896 1.52821317-3.1675749 3.87147338-3.1675749 1.5485893 0 2.6896551.63351499 3.5658307 1.28746594l-1.3448276 1.79836516c-.7335423-.5313352-1.4263323-.8583107-2.1394984-.8583107-.77429469 0-1.14106585.2861036-1.14106585.7970028 0 .6539509.93730405.8991825 1.97648905 1.2874659 1.283699.4700273 2.7304075 1.1852861 2.7304075 3.0449591 0 1.8392371-1.4467085 3.2697548-4.15673981 3.2697548zm-8.79874613-.2452316v-10.13623979h2.9952978v10.13623979zm1.48746081-11.6280654c-.9984326 0-1.73197492-.65395096-1.73197492-1.57356949 0-.91961852.73354232-1.55313351 1.73197492-1.55313351 1.01880878 0 1.73197493.63351499 1.73197493 1.55313351 0 .91961853-.71316615 1.57356949-1.73197493 1.57356949z"/><path d="m25.4926689 6.58578644c-.0406793.23526802-.2457766.41421356-.4926689.41421356s-.4519896-.17894554-.4926689-.41421356h-.0072623c-.1944934-.51564583-.4992542-.99918539-.9142824-1.41421356-1.5620971-1.56209717-4.094757-1.56209717-5.6568542 0-1.5620972 1.56209716-1.5620972 4.09475708 0 5.65685422l7.0710678 7.0710678 7.0710678-7.0710678c1.5620972-1.56209714 1.5620972-4.09475706 0-5.65685422-1.5620972-1.56209717-4.0947571-1.56209717-5.6568542 0-.4150282.41502817-.719789.89856773-.9142824 1.41421356zm7.9926125 5.65685426-8.4852814 8.4852814-8.4852814-8.4852814c-2.3431457-2.34314576-2.3431457-6.14213564 0-8.48528139 2.3431458-2.34314575 6.1421356-2.34314575 8.4852814 0 2.3431458-2.34314575 6.1421356-2.34314575 8.4852814 0 2.3431457 2.34314575 2.3431457 6.14213563 0 8.48528139z" fill="url(#a)"/></svg>

<?xml version="1.0" encoding="UTF-8"?>
<svg width="54px" height="24px" viewBox="0 0 54 24" version="1.1" xmlns="http://www.w3.org/2000/svg" xmlns:xlink="http://www.w3.org/1999/xlink">
  <defs>
    <linearGradient x1="0%" y1="8.21067812%" x2="100%" y2="91.7893219%" id="linearGradient-1">
      <stop stop-color="#F45A5A" offset="0%"></stop>
      <stop stop-color="#E13636" offset="100%"></stop>
    </linearGradient>
  </defs>
  <g>
    <path d="M44.2091798,22 C43.5927414,22 43.1817825,21.9195531 42.7708236,21.7988827 L43.3050702,19.5463687 C43.4900017,19.5865922 43.757125,19.6670391 43.9831524,19.6670391 C44.9900017,19.6670391 45.5037003,19.1441341 45.7708236,18.3597765 L45.9146592,17.8368715 L41.9900017,8.12290503 L45.0310976,8.12290503 L46.4900017,12.4067039 C46.7776729,13.3117318 47.0242483,14.2569832 47.2913715,15.2424581 L47.3735633,15.2424581 C47.5995907,14.2972067 47.8256181,13.3519553 48.0721935,12.4067039 L49.3050702,8.12290503 L52.2023304,8.12290503 L48.6680839,18.1988827 C47.7023304,20.7128492 46.6132893,22 44.2091798,22 Z M39.7739726,18.3396648 C37.6986301,18.3396648 37,17.0122905 37,15.0011173 L37,4 L40.0205479,4 L40.0205479,15.1217877 C40.0205479,15.7452514 40.3082192,15.9463687 40.5547945,15.9463687 C40.6780822,15.9463687 40.760274,15.9463687 40.9246575,15.9061453 L41.2945205,18.098324 C40.9657534,18.2391061 40.4520548,18.3396648 39.7739726,18.3396648 Z M9.84326019,19 C8.51880878,19 6.99059561,18.4277929 5.97178683,17.5899183 L7.31661442,15.7098093 C8.23354232,16.4046322 9.06896552,16.7724796 9.92476489,16.7724796 C10.8213166,16.7724796 11.2084639,16.4455041 11.2084639,15.9141689 C11.2084639,15.239782 10.1896552,14.9332425 9.15047022,14.5245232 C7.92789969,14.0544959 6.48119122,13.2166213 6.48119122,11.5408719 C6.48119122,9.66076294 8.00940439,8.373297 10.3526646,8.373297 C11.9012539,8.373297 13.0423197,9.00681199 13.9184953,9.66076294 L12.5736677,11.4591281 C11.8401254,10.9277929 11.1473354,10.6008174 10.4341693,10.6008174 C9.65987461,10.6008174 9.29310345,10.886921 9.29310345,11.3978202 C9.29310345,12.0517711 10.2304075,12.2970027 11.2695925,12.6852861 C12.5532915,13.1553134 14,13.8705722 14,15.7302452 C14,17.5694823 12.5532915,19 9.84326019,19 Z M1.04451406,18.7547684 L1.04451406,8.61852861 L4.03981186,8.61852861 L4.03981186,18.7547684 L1.04451406,18.7547684 Z M2.53197487,7.126703 C1.53354227,7.126703 0.799999952,6.47275204 0.799999952,5.55313351 C0.799999952,4.63351499 1.53354227,4 2.53197487,4 C3.55078365,4 4.2639498,4.63351499 4.2639498,5.55313351 C4.2639498,6.47275204 3.55078365,7.126703 2.53197487,7.126703 Z" fill="#000000"></path>
    <path d="M25.4926689,6.58578644 C25.4519896,6.82105446 25.2468923,7 25,7 C24.7531077,7 24.5480104,6.82105446 24.5073311,6.58578644 L24.5000688,6.58578644 C24.3055754,6.07014061 24.0008146,5.58660105 23.5857864,5.17157288 C22.0236893,3.60947571 19.4910294,3.60947571 17.9289322,5.17157288 C16.366835,6.73367004 16.366835,9.26632996 17.9289322,10.8284271 L25,17.8994949 L32.0710678,10.8284271 C33.633165,9.26632996 33.633165,6.73367004 32.0710678,5.17157288 C30.5089706,3.60947571 27.9763107,3.60947571 26.4142136,5.17157288 C25.9991854,5.58660105 25.6944246,6.07014061 25.4999312,6.58578644 L25.4926689,6.58578644 L25.4926689,6.58578644 Z M33.4852814,12.2426407 L25,20.7279221 L16.5147186,12.2426407 C14.1715729,9.89949494 14.1715729,6.10050506 16.5147186,3.75735931 C18.8578644,1.41421356 22.6568542,1.41421356 25,3.75735931 C27.3431458,1.41421356 31.1421356,1.41421356 33.4852814,3.75735931 C35.8284271,6.10050506 35.8284271,9.89949494 33.4852814,12.2426407 Z" fill="url(#linearGradient-1)"></path>
  </g>
</svg>
